build/img/sprites/01.svg

<svg width="57" height="32" viewBox="0 0 57 32" fill="none" xmlns="http://www.w3.org/2000/svg">
<mask id="path-1-outside-1_331_2609" maskUnits="userSpaceOnUse" x="0" y="0" width="57" height="32" fill="black">
<rect fill="white" width="57" height="32"/>
<path d="M13.84 30.64C11.36 30.64 9.16 30.0667 7.24 28.92C5.34667 27.7733 3.85333 26.1067 2.76 23.92C1.69333 21.7333 1.16 19.0933 1.16 16C1.16 12.9067 1.69333 10.2667 2.76 8.08C3.85333 5.89333 5.34667 4.22666 7.24 3.08C9.16 1.93333 11.36 1.36 13.84 1.36C16.32 1.36 18.5067 1.93333 20.4 3.08C22.32 4.22666 23.8133 5.89333 24.88 8.08C25.9733 10.2667 26.52 12.9067 26.52 16C26.52 19.0933 25.9733 21.7333 24.88 23.92C23.8133 26.1067 22.32 27.7733 20.4 28.92C18.5067 30.0667 16.32 30.64 13.84 30.64ZM13.84 23.08C14.4533 23.08 15 22.8667 15.48 22.44C15.96 22.0133 16.3333 21.28 16.6 20.24C16.8933 19.2 17.04 17.7867 17.04 16C17.04 14.1867 16.8933 12.7733 16.6 11.76C16.3333 10.72 15.96 9.98667 15.48 9.56C15 9.13333 14.4533 8.92 13.84 8.92C13.2267 8.92 12.68 9.13333 12.2 9.56C11.72 9.98667 11.3333 10.72 11.04 11.76C10.7733 12.7733 10.64 14.1867 10.64 16C10.64 17.7867 10.7733 19.2 11.04 20.24C11.3333 21.28 11.72 22.0133 12.2 22.44C12.68 22.8667 13.2267 23.08 13.84 23.08ZM32.3047 30V5.28L36.3447 9.12H27.5047V2H41.7447V30H32.3047ZM50.1034 30.4C48.6101 30.4 47.3568 29.92 46.3434 28.96C45.3301 27.9733 44.8234 26.72 44.8234 25.2C44.8234 23.6533 45.3301 22.4133 46.3434 21.48C47.3568 20.5467 48.6101 20.08 50.1034 20.08C51.5968 20.08 52.8501 20.5467 53.8634 21.48C54.8768 22.4133 55.3834 23.6533 55.3834 25.2C55.3834 26.72 54.8768 27.9733 53.8634 28.96C52.8501 29.92 51.5968 30.4 50.1034 30.4Z"/>
</mask>
<path d="M7.24 28.92L6.72196 29.7754L6.72726 29.7785L7.24 28.92ZM2.76 23.92L1.86119 24.3584L1.86557 24.3672L2.76 23.92ZM2.76 8.08L1.86553 7.63276L1.86123 7.64157L2.76 8.08ZM7.24 3.08L6.72725 2.22144L6.72197 2.22464L7.24 3.08ZM20.4 3.08L19.882 3.93537L19.8873 3.93854L20.4 3.08ZM24.88 8.08L23.9812 8.51844L23.9856 8.52721L24.88 8.08ZM24.88 23.92L23.9855 23.4728L23.9812 23.4816L24.88 23.92ZM20.4 28.92L19.8873 28.0614L19.882 28.0646L20.4 28.92ZM16.6 20.24L15.6376 19.9685L15.6343 19.98L15.6313 19.9916L16.6 20.24ZM16.6 11.76L15.6313 12.0084L15.6352 12.0233L15.6394 12.0381L16.6 11.76ZM15.48 9.56L16.1444 8.81259L16.1444 8.81259L15.48 9.56ZM12.2 9.56L11.5356 8.81259V8.81259L12.2 9.56ZM11.04 11.76L10.0776 11.4885L10.0752 11.497L10.0729 11.5055L11.04 11.76ZM11.04 20.24L10.0713 20.4884L10.0743 20.5L10.0776 20.5115L11.04 20.24ZM13.84 29.64C11.5203 29.64 9.50125 29.1057 7.75274 28.0615L6.72726 29.7785C8.81876 31.0276 11.1997 31.64 13.84 31.64V29.64ZM7.75804 28.0646C6.04278 27.0258 4.67246 25.5089 3.65443 23.4728L1.86557 24.3672C3.03421 26.7045 4.65055 28.5208 6.72197 29.7754L7.75804 28.0646ZM3.65877 23.4816C2.67427 21.4634 2.16 18.9814 2.16 16H0.16C0.16 19.2053 0.712395 22.0033 1.86123 24.3584L3.65877 23.4816ZM2.16 16C2.16 13.0186 2.67427 10.5366 3.65877 8.51842L1.86123 7.64157C0.712395 9.99669 0.16 12.7947 0.16 16H2.16ZM3.65443 8.52721C4.67246 6.49114 6.04278 4.97417 7.75803 3.93536L6.72197 2.22464C4.65055 3.47916 3.03421 5.29552 1.86557 7.63278L3.65443 8.52721ZM7.75274 3.93854C9.50125 2.8943 11.5203 2.36 13.84 2.36V0.359999C11.1997 0.359999 8.81876 0.972368 6.72726 2.22145L7.75274 3.93854ZM13.84 2.36C16.1599 2.36 18.1631 2.89435 19.882 3.93536L20.918 2.22464C18.8502 0.97231 16.4801 0.359999 13.84 0.359999V2.36ZM19.8873 3.93854C21.6259 4.97688 22.9919 6.49031 23.9812 8.51842L25.7788 7.64157C24.6348 5.29635 23.0141 3.47645 20.9127 2.22146L19.8873 3.93854ZM23.9856 8.52721C24.9935 10.5431 25.52 13.0218 25.52 16H27.52C27.52 12.7915 26.9531 9.99019 25.7744 7.63278L23.9856 8.52721ZM25.52 16C25.52 18.9782 24.9935 21.4569 23.9856 23.4728L25.7744 24.3672C26.9531 22.0098 27.52 19.2085 27.52 16H25.52ZM23.9812 23.4816C22.9919 25.5097 21.6259 27.0231 19.8873 28.0615L20.9127 29.7785C23.0141 28.5235 24.6348 26.7036 25.7788 24.3584L23.9812 23.4816ZM19.882 28.0646C18.1631 29.1056 16.1599 29.64 13.84 29.64V31.64C16.4801 31.64 18.8502 31.0277 20.918 29.7754L19.882 28.0646ZM13.84 24.08C14.7106 24.08 15.4907 23.7684 16.1444 23.1874L14.8156 21.6926C14.5093 21.9649 14.1961 22.08 13.84 22.08V24.08ZM16.1444 23.1874C16.843 22.5664 17.2824 21.6049 17.5687 20.4884L15.6313 19.9916C15.3843 20.9551 15.077 21.4603 14.8156 21.6926L16.1444 23.1874ZM17.5625 20.5115C17.8916 19.3444 18.04 17.827 18.04 16H16.04C16.04 17.7464 15.8951 19.0555 15.6376 19.9685L17.5625 20.5115ZM18.04 16C18.04 14.1497 17.8922 12.6277 17.5606 11.4819L15.6394 12.0381C15.8944 12.919 16.04 14.2236 16.04 16H18.04ZM17.5687 11.5116C17.2824 10.3951 16.843 9.43364 16.1444 8.81259L14.8156 10.3074C15.077 10.5397 15.3843 11.0449 15.6313 12.0084L17.5687 11.5116ZM16.1444 8.81259C15.4907 8.23159 14.7106 7.92 13.84 7.92V9.92C14.1961 9.92 14.5093 10.0351 14.8156 10.3074L16.1444 8.81259ZM13.84 7.92C12.9694 7.92 12.1893 8.23159 11.5356 8.81259L12.8644 10.3074C13.1707 10.0351 13.4839 9.92 13.84 9.92V7.92ZM11.5356 8.81259C10.8456 9.42599 10.3912 10.3765 10.0776 11.4885L12.0025 12.0315C12.2755 11.0635 12.5944 10.5473 12.8644 10.3074L11.5356 8.81259ZM10.0729 11.5055C9.77415 12.6409 9.64 14.1535 9.64 16H11.64C11.64 14.2198 11.7725 12.9058 12.0071 12.0145L10.0729 11.5055ZM9.64 16C9.64 17.8229 9.77468 19.3314 10.0713 20.4884L12.0087 19.9916C11.772 19.0686 11.64 17.7504 11.64 16H9.64ZM10.0776 20.5115C10.3912 21.6235 10.8456 22.574 11.5356 23.1874L12.8644 21.6926C12.5944 21.4527 12.2755 20.9365 12.0025 19.9685L10.0776 20.5115ZM11.5356 23.1874C12.1893 23.7684 12.9694 24.08 13.84 24.08V22.08C13.4839 22.08 13.1707 21.9649 12.8644 21.6926L11.5356 23.1874ZM32.3047 30H31.3047V31H32.3047V30ZM32.3047 5.28L32.9936 4.55518L31.3047 2.94985V5.28H32.3047ZM36.3447 9.12V10.12H38.8483L37.0336 8.39518L36.3447 9.12ZM27.5047 9.12H26.5047V10.12H27.5047V9.12ZM27.5047 2V0.999998H26.5047V2H27.5047ZM41.7447 2H42.7447V0.999998H41.7447V2ZM41.7447 30V31H42.7447V30H41.7447ZM33.3047 30V5.28H31.3047V30H33.3047ZM31.6157 6.00482L35.6558 9.84482L37.0336 8.39518L32.9936 4.55518L31.6157 6.00482ZM36.3447 8.12H27.5047V10.12H36.3447V8.12ZM28.5047 9.12V2H26.5047V9.12H28.5047ZM27.5047 3H41.7447V0.999998H27.5047V3ZM40.7447 2V30H42.7447V2H40.7447ZM41.7447 29H32.3047V31H41.7447V29ZM46.3434 28.96L45.6458 29.6765L45.6557 29.686L46.3434 28.96ZM46.3434 21.48L45.666 20.7445V20.7445L46.3434 21.48ZM53.8634 21.48L54.5409 20.7445V20.7445L53.8634 21.48ZM53.8634 28.96L54.5512 29.686L54.5611 29.6765L53.8634 28.96ZM50.1034 29.4C48.8464 29.4 47.845 29.005 47.0312 28.234L45.6557 29.686C46.8685 30.835 48.3739 31.4 50.1034 31.4V29.4ZM47.0411 28.2435C46.2365 27.4602 45.8234 26.4725 45.8234 25.2H43.8234C43.8234 26.9675 44.4237 28.4865 45.6458 29.6765L47.0411 28.2435ZM45.8234 25.2C45.8234 23.8949 46.2395 22.9353 47.0209 22.2155L45.666 20.7445C44.4207 21.8914 43.8234 23.4118 43.8234 25.2H45.8234ZM47.0209 22.2155C47.8334 21.4672 48.8382 21.08 50.1034 21.08V19.08C48.3821 19.08 46.8801 19.6261 45.666 20.7445L47.0209 22.2155ZM50.1034 21.08C51.3687 21.08 52.3735 21.4672 53.186 22.2155L54.5409 20.7445C53.3267 19.6261 51.8248 19.08 50.1034 19.08V21.08ZM53.186 22.2155C53.9674 22.9353 54.3834 23.8949 54.3834 25.2H56.3834C56.3834 23.4118 55.7862 21.8914 54.5409 20.7445L53.186 22.2155ZM54.3834 25.2C54.3834 26.4725 53.9703 27.4602 53.1658 28.2435L54.5611 29.6765C55.7832 28.4865 56.3834 26.9675 56.3834 25.2H54.3834ZM53.1757 28.234C52.3619 29.005 51.3605 29.4 50.1034 29.4V31.4C51.833 31.4 53.3383 30.835 54.5512 29.686L53.1757 28.234Z" fill="#78213A" mask="url(#path-1-outside-1_331_2609)"/>
</svg>

<svg width="57" height="32" viewBox="0 0 57 32" fill="none" xmlns="http://www.w3.org/2000/svg"><mask id="path-1-outside-1_331_2609" maskUnits="userSpaceOnUse" x="0" y="0" width="57" height="32" fill="#000"><path fill="#fff" d="M0 0h57v32H0z"/><path d="M13.84 30.64c-2.48 0-4.68-.573-6.6-1.72-1.893-1.147-3.387-2.813-4.48-5-1.067-2.187-1.6-4.827-1.6-7.92s.533-5.733 1.6-7.92c1.093-2.187 2.587-3.853 4.48-5 1.92-1.147 4.12-1.72 6.6-1.72 2.48 0 4.667.573 6.56 1.72 1.92 1.147 3.413 2.813 4.48 5 1.093 2.187 1.64 4.827 1.64 7.92s-.547 5.733-1.64 7.92c-1.067 2.187-2.56 3.853-4.48 5-1.893 1.147-4.08 1.72-6.56 1.72zm0-7.56c.613 0 1.16-.213 1.64-.64.48-.427.853-1.16 1.12-2.2.293-1.04.44-2.453.44-4.24 0-1.813-.147-3.227-.44-4.24-.267-1.04-.64-1.773-1.12-2.2-.48-.427-1.027-.64-1.64-.64s-1.16.213-1.64.64c-.48.427-.867 1.16-1.16 2.2-.267 1.013-.4 2.427-.4 4.24 0 1.787.133 3.2.4 4.24.293 1.04.68 1.773 1.16 2.2.48.427 1.027.64 1.64.64zM32.305 30V5.28l4.04 3.84h-8.84V2h14.24v28h-9.44zm17.798.4c-1.493 0-2.746-.48-3.76-1.44-1.013-.987-1.52-2.24-1.52-3.76 0-1.547.507-2.787 1.52-3.72 1.014-.933 2.267-1.4 3.76-1.4 1.494 0 2.747.467 3.76 1.4 1.014.933 1.52 2.173 1.52 3.72 0 1.52-.506 2.773-1.52 3.76-1.013.96-2.266 1.44-3.76 1.44z"/></mask><path d="M7.24 28.92l-.518.855.005.004.513-.859zm-4.48-5l-.899.438.005.01.894-.448zm0-15.84l-.894-.447-.005.009.899.438zm4.48-5l-.513-.859-.005.004.518.855zm13.16 0l-.518.855.005.004.513-.859zm4.48 5l-.899.438.005.01.894-.448zm0 15.84l-.895-.447-.004.009.899.438zm-4.48 5l-.513-.859-.005.004.518.855zm-3.8-8.68l-.962-.271-.004.011-.003.012.969.248zm0-8.48l-.969.248.004.015.004.015.961-.278zm-1.12-2.2l.664-.747-.664.747zm-3.28 0l-.664-.747.664.747zm-1.16 2.2l-.962-.271-.003.008-.002.008.967.255zm0 8.48l-.969.248.003.012.004.012.962-.272zm2.8 9.4c-2.32 0-4.339-.534-6.087-1.579L6.727 29.78c2.093 1.247 4.473 1.86 7.113 1.86v-2zm-6.082-1.575c-1.715-1.04-3.086-2.556-4.104-4.592l-1.788.894c1.168 2.337 2.785 4.154 4.856 5.408l1.036-1.71zm-4.1-4.583C2.675 21.463 2.16 18.982 2.16 16h-2c0 3.205.552 6.003 1.701 8.358l1.798-.876zM2.16 16c0-2.981.514-5.463 1.499-7.482L1.86 7.642C.712 9.997.16 12.795.16 16h2zm1.494-7.473c1.018-2.036 2.389-3.553 4.104-4.592l-1.036-1.71c-2.071 1.254-3.688 3.07-4.856 5.408l1.788.894zM7.753 3.94C9.5 2.894 11.52 2.36 13.84 2.36v-2c-2.64 0-5.021.612-7.113 1.861L7.753 3.94zm6.087-1.58c2.32 0 4.323.534 6.042 1.575l1.036-1.71C18.85.972 16.48.36 13.84.36v2zm6.047 1.579c1.739 1.038 3.105 2.551 4.094 4.58l1.798-.877c-1.144-2.346-2.765-4.166-4.866-5.42l-1.026 1.717zm4.099 4.588c1.008 2.016 1.534 4.495 1.534 7.473h2c0-3.209-.567-6.01-1.746-8.367l-1.788.894zM25.52 16c0 2.978-.526 5.457-1.534 7.473l1.788.894c1.18-2.357 1.746-5.159 1.746-8.367h-2zm-1.539 7.482c-.99 2.028-2.355 3.541-4.094 4.58l1.026 1.716c2.101-1.255 3.722-3.074 4.866-5.42l-1.798-.876zm-4.099 4.583c-1.719 1.04-3.722 1.575-6.042 1.575v2c2.64 0 5.01-.612 7.078-1.865l-1.036-1.71zM13.84 24.08c.87 0 1.65-.312 2.304-.893l-1.328-1.494c-.307.272-.62.387-.976.387v2zm2.304-.893c.699-.62 1.138-1.582 1.425-2.699l-1.938-.496c-.247.963-.554 1.468-.815 1.7l1.328 1.495zm1.419-2.675c.329-1.168.477-2.685.477-4.512h-2c0 1.746-.145 3.055-.402 3.968l1.925.544zM18.04 16c0-1.85-.148-3.372-.48-4.518l-1.92.556c.254.881.4 2.186.4 3.962h2zm-.471-4.488c-.287-1.117-.726-2.078-1.425-2.7l-1.328 1.495c.261.233.568.738.815 1.701l1.938-.496zm-1.425-2.7c-.653-.58-1.433-.892-2.304-.892v2c.356 0 .67.115.976.387l1.328-1.494zM13.84 7.92c-.87 0-1.65.312-2.304.893l1.328 1.494c.307-.272.62-.387.976-.387v-2zm-2.304.893c-.69.613-1.145 1.563-1.458 2.675l1.925.543c.272-.968.591-1.484.861-1.724l-1.328-1.494zm-1.463 2.692C9.774 12.641 9.64 14.153 9.64 16h2c0-1.78.133-3.094.367-3.986l-1.934-.508zM9.64 16c0 1.823.135 3.331.431 4.488l1.938-.496c-.237-.923-.369-2.242-.369-3.992h-2zm.438 4.512c.313 1.111.768 2.062 1.458 2.675l1.328-1.494c-.27-.24-.589-.757-.862-1.725l-1.924.544zm1.458 2.675c.653.581 1.433.893 2.304.893v-2c-.356 0-.67-.115-.976-.387l-1.328 1.494zM32.305 30h-1v1h1v-1zm0-24.72l.689-.725-1.69-1.605v2.33h1zm4.04 3.84v1h2.503l-1.814-1.725-.69.725zm-8.84 0h-1v1h1v-1zm0-7.12V1h-1v1h1zm14.24 0h1V1h-1v1zm0 28v1h1v-1h-1zm-8.44 0V5.28h-2V30h2zm-1.69-23.995l4.04 3.84 1.379-1.45-4.04-3.84-1.378 1.45zm4.73 2.115h-8.84v2h8.84v-2zm-7.84 1V2h-2v7.12h2zm-1-6.12h14.24V1h-14.24v2zm13.24-1v28h2V2h-2zm1 27h-9.44v2h9.44v-2zm4.598-.04l-.697.716.01.01.687-.726zm0-7.48l-.677-.736.677.736zm7.52 0l.678-.736-.678.736zm0 7.48l.688.726.01-.01-.698-.716zm-3.76.44c-1.257 0-2.258-.395-3.072-1.166l-1.375 1.452c1.212 1.149 2.718 1.714 4.447 1.714v-2zm-3.062-1.156c-.804-.784-1.218-1.771-1.218-3.044h-2c0 1.768.6 3.287 1.823 4.477l1.395-1.433zM45.823 25.2c0-1.305.416-2.265 1.198-2.985l-1.355-1.47c-1.245 1.146-1.843 2.667-1.843 4.455h2zm1.198-2.985c.812-.748 1.817-1.135 3.082-1.135v-2c-1.72 0-3.223.546-4.437 1.665l1.355 1.47zm3.082-1.135c1.266 0 2.27.387 3.083 1.136l1.355-1.472c-1.214-1.118-2.716-1.664-4.438-1.664v2zm3.083 1.136c.781.72 1.197 1.679 1.197 2.984h2c0-1.788-.597-3.309-1.842-4.456l-1.355 1.471zm1.197 2.984c0 1.273-.413 2.26-1.217 3.044l1.395 1.433c1.222-1.19 1.822-2.71 1.822-4.477h-2zm-1.207 3.034c-.814.771-1.816 1.166-3.073 1.166v2c1.73 0 3.235-.565 4.448-1.714l-1.375-1.452z" fill="#78213A" mask="url(#path-1-outside-1_331_2609)"/></svg>
